X: 19625
T: Jarnovich's
R: reel
M: 4/4
K: Fmajor
|:fc~c2 fc~c2|defg ec~c2|dfcf BfAf|BdcBAF~F2:|
|:aagf egc'2|ffed cfa2|ddcB Acfa|bgeg f/f/ff2:|

